Sources/FrostedUI/Resources/Icons.xcassets/arrowUpRightFromBracket24.imageset/arrow-up-right-from-bracket-24.svg

<svg width="24" height="24" viewBox="0 0 24 24" fill="none" xmlns="http://www.w3.org/2000/svg" data-fui-icon="true">
  <path
    d="M22.25 16.0002C22.6642 16.0002 23 16.3359 23 16.7502V17.7502C22.9999 20.6496 20.6494 23.0002 17.75 23.0002H6.25C3.35055 23.0002 1.00008 20.6496 1 17.7502V16.7502C1 16.3359 1.33579 16.0002 1.75 16.0002C2.16421 16.0002 2.5 16.3359 2.5 16.7502V17.7502C2.50008 19.8212 4.17898 21.5002 6.25 21.5002H17.75C19.821 21.5002 21.4999 19.8212 21.5 17.7502V16.7502C21.5 16.3359 21.8358 16.0002 22.25 16.0002ZM14.7197 1.96988C15.0126 1.67699 15.4874 1.67699 15.7803 1.96988L19.0303 5.21988C19.3231 5.51278 19.3231 5.98756 19.0303 6.28043L15.7803 9.53043C15.4874 9.82322 15.0126 9.82322 14.7197 9.53043C14.4269 9.23756 14.4269 8.76278 14.7197 8.46988L16.6895 6.50015H13.75C11.9551 6.50015 10.5 7.95523 10.5 9.75015V16.2502C10.4999 16.6643 10.1642 17.0002 9.75 17.0002C9.33584 17.0002 9.00008 16.6643 9 16.2502V9.75015C9 7.1268 11.1266 5.00015 13.75 5.00015H16.6895L14.7197 3.03043C14.4269 2.73756 14.4269 2.26278 14.7197 1.96988Z"
    fill="currentColor"
  />
</svg>

<svg xmlns="http://www.w3.org/2000/svg" width="24" height="24" fill="none" data-fui-icon="true" viewBox="0 0 24 24"><path fill="currentColor" d="M22.25 16a.75.75 0 0 1 .75.75v1c0 2.9-2.35 5.25-5.25 5.25H6.25A5.25 5.25 0 0 1 1 17.75v-1a.75.75 0 1 1 1.5 0v1a3.75 3.75 0 0 0 3.75 3.75h11.5a3.75 3.75 0 0 0 3.75-3.75v-1a.75.75 0 0 1 .75-.75M14.72 1.97a.75.75 0 0 1 1.06 0l3.25 3.25a.75.75 0 0 1 0 1.06l-3.25 3.25a.75.75 0 0 1-1.06-1.06l1.97-1.97h-2.94a3.25 3.25 0 0 0-3.25 3.25v6.5a.75.75 0 0 1-1.5 0v-6.5A4.75 4.75 0 0 1 13.75 5h2.94l-1.97-1.97a.75.75 0 0 1 0-1.06"/></svg>
